breeze-extended-cinnamon/status/symbolic/network-wireless-offline-symbolic.svg

<?xml version="1.0" encoding="UTF-8" standalone="no"?>
<!-- Created with Inkscape (http://www.inkscape.org/) -->

<svg
   id="svg7384"
   height="16"
   width="16"
   version="1.1"
   sodipodi:docname="network-wireless-offline-symbolic.svg"
   inkscape:version="1.1.1 (3bf5ae0d25, 2021-09-20, custom)"
   xmlns:inkscape="http://www.inkscape.org/namespaces/inkscape"
   xmlns:sodipodi="http://sodipodi.sourceforge.net/DTD/sodipodi-0.dtd"
   xmlns="http://www.w3.org/2000/svg"
   xmlns:svg="http://www.w3.org/2000/svg"
   xmlns:rdf="http://www.w3.org/1999/02/22-rdf-syntax-ns#"
   xmlns:cc="http://creativecommons.org/ns#"
   xmlns:dc="http://purl.org/dc/elements/1.1/">
  <defs
     id="defs14" />
  <sodipodi:namedview
     pagecolor="#ffffff"
     bordercolor="#666666"
     borderopacity="1"
     objecttolerance="10"
     gridtolerance="10"
     guidetolerance="10"
     inkscape:pageopacity="0"
     inkscape:pageshadow="2"
     inkscape:window-width="1920"
     inkscape:window-height="1019"
     id="namedview12"
     showgrid="true"
     inkscape:zoom="18.16"
     inkscape:cx="3.6343612"
     inkscape:cy="6.8281938"
     inkscape:window-x="0"
     inkscape:window-y="0"
     inkscape:window-maximized="1"
     inkscape:current-layer="svg7384"
     inkscape:pagecheckerboard="0">
    <inkscape:grid
       type="xygrid"
       id="grid4508" />
  </sodipodi:namedview>
  <metadata
     id="metadata90">
    <rdf:RDF>
      <cc:Work
         rdf:about="">
        <dc:format>image/svg+xml</dc:format>
        <dc:type
           rdf:resource="http://purl.org/dc/dcmitype/StillImage" />
        <dc:title>Gnome Symbolic Icon Theme</dc:title>
      </cc:Work>
    </rdf:RDF>
  </metadata>
  <title
     id="title9167">Gnome Symbolic Icon Theme</title>
  <path
     inkscape:connector-curvature="0"
     style="color:#31363b;opacity:0.5;fill:#232627;fill-opacity:1;fill-rule:evenodd;stroke:none;stroke-width:1px;stroke-linecap:butt;stroke-linejoin:miter;stroke-opacity:1"
     d="m 11.707032,11.050781 1.767578,1.767578 1.767578,-1.767578 0.707031,0.707031 -1.767578,1.767578 1.767578,1.767578 L 15.242188,16 13.47461,14.232421 11.707032,16 11,15.292968 12.767579,13.52539 11,11.757812 Z"
     id="path4490" />
  <path
     id="path4477-3"
     style="color:#31363b;opacity:0.5;fill:#242628;fill-opacity:0.992506;stroke:none"
     d="M 8.0117188,2.3085938 C 4.9647191,2.308594 2.2128592,3.535188 0.22460938,5.5234375 L 0.93164062,6.2304688 C 2.7391404,4.4229589 5.241719,3.3085947 8.0117188,3.3085938 c 2.7700002,2e-7 5.2706162,1.1143643 7.0781252,2.921875 L 15.798828,5.5234375 C 13.810578,3.5351866 11.058719,2.308594 8.0117188,2.3085938 Z m 0.033203,3.9140624 c -1.9389999,-1e-7 -3.6898283,0.7816255 -4.9550781,2.046875 L 3.798828,8.9785156 c 1.0845,-1.0844993 2.5840939,-1.7558594 4.2460938,-1.7558594 1.6620004,2e-7 3.1615952,0.6713592 4.2460942,1.7558594 L 13,8.2695312 C 11.73475,7.0042808 9.9839222,6.2226562 8.0449218,6.2226562 Z M 8.0234375,9.7109375 C 7.1129604,9.7094384 6.20037,10.055524 5.5039062,10.748047 l 0.7089844,0.708984 c 1.0013418,-0.993436 2.6168477,-0.992561 3.6152344,0.0039 l 0.00195,0.002 0.707031,-0.707032 C 9.8428691,10.061047 8.9339146,9.7124366 8.0234375,9.7109375 Z M 8,13 c -0.5522847,0 -1,0.447715 -1,1 0,0.552285 0.4477153,1 1,1 0.5522847,0 1,-0.447715 1,-1 0,-0.552285 -0.4477153,-1 -1,-1 z"
     sodipodi:nodetypes="sccsccssccsccssccsccssssss" />
</svg>

<?xml version="1.0" encoding="UTF-8" standalone="no"?>
<!-- Created with Inkscape (http://www.inkscape.org/) -->

<svg
   id="svg7384"
   height="16"
   width="16"
   version="1.1"
   sodipodi:docname="network-wireless-offline-symbolic.svg"
   inkscape:version="1.1.1 (3bf5ae0d25, 2021-09-20, custom)"
   xmlns:inkscape="http://www.inkscape.org/namespaces/inkscape"
   xmlns:sodipodi="http://sodipodi.sourceforge.net/DTD/sodipodi-0.dtd"
   xmlns="http://www.w3.org/2000/svg"
   xmlns:svg="http://www.w3.org/2000/svg"
   xmlns:rdf="http://www.w3.org/1999/02/22-rdf-syntax-ns#"
   xmlns:cc="http://creativecommons.org/ns#"
   xmlns:dc="http://purl.org/dc/elements/1.1/">
  <defs
     id="defs14" />
  <sodipodi:namedview
     pagecolor="#ffffff"
     bordercolor="#666666"
     borderopacity="1"
     objecttolerance="10"
     gridtolerance="10"
     guidetolerance="10"
     inkscape:pageopacity="0"
     inkscape:pageshadow="2"
     inkscape:window-width="1920"
     inkscape:window-height="1019"
     id="namedview12"
     showgrid="true"
     inkscape:zoom="18.16"
     inkscape:cx="3.6343612"
     inkscape:cy="6.8281938"
     inkscape:window-x="0"
     inkscape:window-y="0"
     inkscape:window-maximized="1"
     inkscape:current-layer="svg7384"
     inkscape:pagecheckerboard="0">
    <inkscape:grid
       type="xygrid"
       id="grid4508" />
  </sodipodi:namedview>
  <metadata
     id="metadata90">
    <rdf:RDF>
      <cc:Work
         rdf:about="">
        <dc:format>image/svg+xml</dc:format>
        <dc:type
           rdf:resource="http://purl.org/dc/dcmitype/StillImage" />
        <dc:title>Gnome Symbolic Icon Theme</dc:title>
      </cc:Work>
    </rdf:RDF>
  </metadata>
  <title
     id="title9167">Gnome Symbolic Icon Theme</title>
  <path
     inkscape:connector-curvature="0"
     style="color:#31363b;opacity:0.5;fill:#232627;fill-opacity:1;fill-rule:evenodd;stroke:none;stroke-width:1px;stroke-linecap:butt;stroke-linejoin:miter;stroke-opacity:1"
     d="m 11.707032,11.050781 1.767578,1.767578 1.767578,-1.767578 0.707031,0.707031 -1.767578,1.767578 1.767578,1.767578 L 15.242188,16 13.47461,14.232421 11.707032,16 11,15.292968 12.767579,13.52539 11,11.757812 Z"
     id="path4490" />
  <path
     id="path4477-3"
     style="color:#31363b;fill:#242628;fill-opacity:0.992506;stroke:none;opacity:0.5"
     d="M 8.0117188 2.3085938 C 4.9647191 2.308594 2.2128592 3.535188 0.22460938 5.5234375 L 0.93164062 6.2304688 C 2.7391404 4.4229589 5.241719 3.3085947 8.0117188 3.3085938 C 10.781719 3.308594 13.282335 4.4229581 15.089844 6.2304688 L 15.798828 5.5234375 C 13.810578 3.5351866 11.058719 2.308594 8.0117188 2.3085938 z M 8.0449219 6.2226562 C 6.105922 6.2226561 4.3550936 7.0042817 3.0898438 8.2695312 L 3.7988281 8.9785156 C 4.8833281 7.8940163 6.382922 7.2226562 8.0449219 7.2226562 C 9.7069223 7.2226564 11.206517 7.8940154 12.291016 8.9785156 L 13 8.2695312 C 11.73475 7.0042808 9.9839222 6.2226562 8.0449219 6.2226562 z M 8.0234375 9.7109375 C 7.1129604 9.7094384 6.20037 10.055524 5.5039062 10.748047 L 6.2128906 11.457031 C 7.2142324 10.463595 8.8297383 10.46447 9.828125 11.460938 L 9.8300781 11.462891 L 10.537109 10.755859 C 9.8428691 10.061047 8.9339146 9.7124366 8.0234375 9.7109375 z M 8 12.269531 A 1 1 0 0 0 7 13.269531 A 1 1 0 0 0 8 14.269531 A 1 1 0 0 0 9 13.269531 A 1 1 0 0 0 8 12.269531 z " />
</svg>
